2024/static/img/X.svg

<svg xmlns="http://www.w3.org/2000/svg" width="26" height="26" fill="none" viewBox="0 0 26 26"><path fill="#fff" d="M19.9 2.12h3.68l-8.04 9.21L25 23.87h-7.41l-5.8-7.6-6.63 7.6H1.47l8.6-9.86L1 2.13h7.59l5.24 6.95zm-1.29 19.55h2.04L7.48 4.22H5.29z"/></svg>

<svg width="26" height="26" viewBox="0 0 26 26" fill="none" xmlns="http://www.w3.org/2000/svg">
<path d="M19.9 2.12H23.58L15.54 11.33L25 23.87H17.59L11.79 16.27L5.16 23.87H1.47L10.07 14.01L1 2.13H8.59L13.83 9.08L19.9 2.13V2.12ZM18.61 21.67H20.65L7.48 4.22H5.29L18.6 21.67H18.61Z" fill="white"/>
</svg>
